svg/sign-out.svg

<svg xmlns="http://www.w3.org/2000/svg" width="100" height="100" viewBox="0 0 100 100"><path d="M77.998 62.223v-11.612h-29.024v-11.612h29.028v-11.609l17.416 17.415-17.42 17.418zm-5.803-5.806v23.22h-29.027v17.419l-34.835-17.419v-75.47h63.862v29.029h-5.805v-23.223h-46.443l23.221 11.611v52.251h23.223v-17.418h5.804z"/></svg>

<?xml version="1.0" encoding="utf-8"?>
<!-- Generator: Adobe Illustrator 16.0.4, SVG Export Plug-In . SVG Version: 6.00 Build 0)  -->
<!DOCTYPE svg PUBLIC "-//W3C//DTD SVG 1.1//EN" "http://www.w3.org/Graphics/SVG/1.1/DTD/svg11.dtd">
<svg version="1.1" id="Layer_1" xmlns="http://www.w3.org/2000/svg" xmlns:xlink="http://www.w3.org/1999/xlink" x="0px" y="0px"
	 width="100px" height="100px" viewBox="0 0 100 100" enable-background="new 0 0 100 100" xml:space="preserve">
<path d="M77.998,62.223V50.611H48.974V38.999h29.028V27.39l17.416,17.415L77.998,62.223z M72.195,56.417v23.22H43.168v17.419
	L8.333,79.637V4.167h63.862v29.029h-5.805V9.973H19.947l23.221,11.611v52.251h23.223V56.417H72.195z"/>
</svg>
